icon-themes/sifr_svg/chart2/res/typexy_16.svg

<svg viewBox="0 0 16 16" xmlns="http://www.w3.org/2000/svg"><g fill="#555753"><path d="m11 1v2h-2v2h2v2h2v-2h2v-2h-2v-2zm-8 8v2h-2v2h2v2h2v-2h2v-2h-2v-2z"/><path d="m2 2v4h4v-4zm7 7v6h6v-6zm2 2h2v2h-2z" opacity=".35"/></g></svg>

<svg xmlns="http://www.w3.org/2000/svg" viewBox="0 0 16 16">
  <path
     style="fill:#555753"
     d="M 11 1 L 11 3 L 9 3 L 9 5 L 11 5 L 11 7 L 13 7 L 13 5 L 15 5 L 15 3 L 13 3 L 13 1 L 11 1 z M 3 9 L 3 11 L 1 11 L 1 13 L 3 13 L 3 15 L 5 15 L 5 13 L 7 13 L 7 11 L 5 11 L 5 9 L 3 9 z "
     />
  <path
     style="opacity:0.35;fill:#555753"
     d="M 2,2 V 6 H 6 V 2 Z m 7,7 v 6 h 6 V 9 Z m 2,2 h 2 v 2 h -2 z"
     />
</svg>
